X:11020
T:Kate Dalrymple
T:Jingling Johnnie
R:Reel
C:Trad.
O:Scotland
Z:Paul Hardy's Session Tunebook 2022 (see www.paulhardy.net). Creative Commons cc by-nc-sa licenced.
M:4/4
L:1/8
Q:1/4=150
K:G
"G".G2 GB "D7".A2 AB|"G".G2 GB "D7".A2 AB|"G"G2 gf "C"edcB|"D7"A2 d2 "G"B2 G2:|
"G".d2 de dcBc|d2 g2 d2 Bc|.d2 de dcBc|d2 gf "E7"edcB|
"Am"c2 ec "G"B2 dB|"A7"A2 AB "D7"(3cdc BA|"G"G2 gf "Am"edcB|"D7"A2 d2 "G"B2 G2|]

